src/assets/selectIconsSpells/maledizione_2.svg

<svg xmlns="http://www.w3.org/2000/svg" viewBox="0 0 512 512"><path d="M0 0h512v512H0z"/><path fill="#fff" d="M227.438 18.594L207.313 87.97c-51.705 15-93.266 51.876-115.188 99.06l-73.406 9.814 58 43.094c-1.834 13.845-2.095 28.103-.626 42.593 1.892 18.672 6.55 36.403 13.5 52.845l-33.563 63.22 62.69-15.97c10.04 11.805 21.53 22.302 34.155 31.22l4.063 72 44.656-47.5c3.523 1.154 7.08 2.212 10.687 3.155v51.094h18.69v-47.25c9.448 1.436 19.105 2.11 28.905 2.03v45.22h18.688V446.28c16.735-1.836 32.71-5.878 47.656-11.81l48.31 30.5 1.814 2.186v25.438h18.687V460.5l-2.092-2.563-12.594-15.437-8.47-34.344c19.613-15.464 35.89-34.777 47.813-56.687l67.438 2.655-49.313-51.406c3.958-18.31 5.146-37.53 3.157-57.158-1.816-17.9-6.148-34.947-12.626-50.812l.75 1.063 45.094-59.063-73.094 12.03c-33.67-41.52-84.87-67.627-140.97-68.06l-32.687-62.126zm31.343 80.78c18.82 0 37.02 3.223 54.033 9.157l4.625 40.595 34.187-20.97c38.577 26.43 65.657 69.033 70.75 119.282.18 1.775.346 3.546.47 5.313l-48.283 16.125 45.188 29.03c-8.816 42.143-33.876 78.896-68.97 102.626V235.75c1.017-6.205 1.21-12.552.408-19.03-7.203-58.14-80.477-59.517-100.844-6.75-36.378-45.1-100.77-19.982-93.656 37.186 3.574 28.718 29.094 49.678 55.593 67.22v107.78C157.405 406.133 113.557 362.12 99 305l29.72-24.97-34.814-21.405c.983-31.41 10.888-60.917 27.47-85.813l41.31 3.782-15.81-33.625c25.302-23.35 58.116-39.006 95.06-42.75 5.663-.575 11.276-.845 16.845-.845zm73.314 178.94v133.123c-16.367 8.158-34.377 13.722-53.53 16.063l-.002-79.063c10.236-20.103 35.553-43.51 53.532-70.125zM230.97 326.31c10.877 6.818 21.026 13.216 28.905 19.5v82.907c-9.82.093-19.493-.698-28.906-2.283V326.313z"/></svg>

<?xml version="1.0" encoding="UTF-8" standalone="no"?>
<!DOCTYPE svg PUBLIC "-//W3C//DTD SVG 1.1//EN" "http://www.w3.org/Graphics/SVG/1.1/DTD/svg11.dtd">
<svg width="100%" height="100%" viewBox="0 0 512 512" version="1.1" xmlns="http://www.w3.org/2000/svg" xmlns:xlink="http://www.w3.org/1999/xlink" xml:space="preserve" xmlns:serif="http://www.serif.com/" style="fill-rule:evenodd;clip-rule:evenodd;stroke-linejoin:round;stroke-miterlimit:2;">
    <rect x="0" y="0" width="512" height="512" style="fill-rule:nonzero;"/>
    <path d="M227.438,18.594L207.313,87.97C155.608,102.97 114.047,139.846 92.125,187.03L18.719,196.844L76.719,239.938C74.885,253.783 74.624,268.041 76.093,282.531C77.985,301.203 82.643,318.934 89.593,335.376L56.03,398.596L118.72,382.626C128.76,394.431 140.25,404.928 152.875,413.846L156.938,485.846L201.594,438.346C205.117,439.5 208.674,440.558 212.281,441.501L212.281,492.595L230.971,492.595L230.971,445.345C240.419,446.781 250.076,447.455 259.876,447.375L259.876,492.595L278.564,492.595L278.564,446.28C295.299,444.444 311.274,440.402 326.22,434.47L374.53,464.97L376.344,467.156L376.344,492.594L395.031,492.594L395.031,460.5L392.939,457.937L380.345,442.5L371.875,408.156C391.488,392.692 407.765,373.379 419.688,351.469L487.126,354.124L437.813,302.718C441.771,284.408 442.959,265.188 440.97,245.56C439.154,227.66 434.822,210.613 428.344,194.748L429.094,195.811L474.188,136.748L401.094,148.778C367.424,107.258 316.224,81.151 260.124,80.718L227.437,18.592L227.438,18.594ZM258.781,99.374C277.601,99.374 295.801,102.597 312.814,108.531L317.439,149.126L351.626,128.156C390.203,154.586 417.283,197.189 422.376,247.438C422.556,249.213 422.722,250.984 422.846,252.751L374.563,268.876L419.751,297.906C410.935,340.049 385.875,376.802 350.781,400.532L350.781,235.75C351.798,229.545 351.991,223.198 351.189,216.72C343.986,158.58 270.712,157.203 250.345,209.97C213.967,164.87 149.575,189.988 156.689,247.156C160.263,275.874 185.783,296.834 212.282,314.376L212.282,422.156C157.405,406.133 113.557,362.12 99,305L128.72,280.03L93.906,258.625C94.889,227.215 104.794,197.708 121.376,172.812L162.686,176.594L146.876,142.969C172.178,119.619 204.992,103.963 241.936,100.219C247.599,99.644 253.212,99.374 258.781,99.374ZM332.095,278.312L332.095,411.437C315.728,419.595 297.718,425.159 278.565,427.5L278.563,348.437C288.799,328.334 314.116,304.927 332.095,278.312ZM230.97,326.31C241.847,333.128 251.996,339.526 259.875,345.81L259.875,428.717C250.055,428.81 240.382,428.019 230.969,426.434L230.969,326.313L230.97,326.31Z" style="fill:url(#_Linear1);fill-rule:nonzero;"/>
    <defs>
        <linearGradient id="_Linear1" x1="0" y1="0" x2="1" y2="0" gradientUnits="userSpaceOnUse" gradientTransform="matrix(468.407,0,0,474.003,18.719,255.593)"><stop offset="0" style="stop-color:rgb(7,224,62);stop-opacity:1"/><stop offset="0.53" style="stop-color:rgb(23,188,95);stop-opacity:1"/><stop offset="1" style="stop-color:rgb(80,65,208);stop-opacity:1"/></linearGradient>
    </defs>
</svg>
